packages/assets/static/images/icons/bluesky-logo.svg

<svg width="26" height="24" viewBox="0 0 26 24" xmlns="http://www.w3.org/2000/svg">
<path d="M8.53572 22.7244C8.20418 22.7244 7.85106 22.6688 7.47441 22.5484C7.45381 22.5413 7.43321 22.5342 7.41359 22.5261C4.72795 21.4028 3.07811 19.2252 3.30763 17.1052C3.36649 16.5598 3.62151 15.5519 4.64359 14.6988C4.23162 14.5248 3.85202 14.294 3.50871 14.0077C1.51851 12.3511 1.0879 9.14636 0.934888 6.53962C0.751463 3.42794 1.44985 1.67528 3.01043 1.33021C4.8741 0.918355 7.24488 2.92704 8.90551 4.68476C10.3915 6.25831 11.7687 8.13341 12.5456 9.5997C13.3224 8.13341 14.6996 6.25831 16.1856 4.68476C17.8462 2.92704 20.216 0.918355 22.0807 1.33021C23.6403 1.67528 24.3387 3.42794 24.1562 6.53962C24.0032 9.14636 23.5716 12.3511 21.5824 14.0077C21.2381 14.294 20.8595 14.5248 20.4475 14.6988C21.4696 15.5509 21.7246 16.5587 21.7835 17.1052C22.013 19.2252 20.3632 21.4028 17.6775 22.5261C17.6579 22.5342 17.6373 22.5423 17.6167 22.5484C16.5515 22.8914 14.9301 22.7548 13.2567 20.1602C12.9918 19.7504 12.7604 19.3314 12.5652 18.9439C11.8001 20.6257 10.5808 22.7244 8.53768 22.7244H8.53572ZM7.97171 21.0122C9.62155 21.5162 10.5926 19.5834 11.5225 17.3814C11.6402 17.1032 11.751 16.8401 11.856 16.6134C11.9923 16.3179 12.2876 16.1368 12.6044 16.154C12.9212 16.1712 13.1969 16.3827 13.3028 16.6903C13.7501 17.9775 15.4058 21.5182 17.1194 21.0112C19.0949 20.1744 20.369 18.6453 20.2219 17.2843C20.0993 16.1509 18.9379 15.3161 17.037 14.9953C16.6113 14.9235 16.321 14.5096 16.3886 14.0694C16.4563 13.6292 16.8555 13.3287 17.2832 13.3965C18.7153 13.6241 19.7982 13.4116 20.5956 12.7478C22.1072 11.49 22.4554 8.7173 22.5888 6.44248C22.7104 4.37612 22.3975 3.05656 21.7511 2.91388C20.7104 2.68417 18.7094 4.33261 17.3097 5.81508C15.6147 7.61025 14.0335 9.86786 13.551 11.1834C13.5382 11.2188 13.5225 11.2532 13.5048 11.2866C13.3283 11.6185 12.9693 11.8168 12.5446 11.8168C12.1198 11.8168 11.7608 11.6185 11.5843 11.2866C11.5666 11.2532 11.5519 11.2188 11.5382 11.1834C11.0556 9.86786 9.47442 7.61025 7.77946 5.81508C6.37975 4.33362 4.37581 2.68417 3.33804 2.91388C2.69262 3.05656 2.37874 4.37612 2.50037 6.44248C2.63377 8.7173 2.98198 11.49 4.49352 12.7478C5.29097 13.4116 6.37386 13.6231 7.80594 13.3965C8.23263 13.3287 8.63282 13.6292 8.70051 14.0694C8.76819 14.5096 8.47883 14.9235 8.05214 14.9953C6.1512 15.3171 4.98984 16.1509 4.86723 17.2843C4.7201 18.6453 5.99426 20.1744 7.97073 21.0112L7.97171 21.0122Z"/>
</svg>

<svg viewBox="0 0 26 24" xmlns="http://www.w3.org/2000/svg" aria-hidden="true" fill="currentColor"><path d="M8.536 22.724c-.332 0-.685-.055-1.062-.176l-.06-.022c-2.686-1.123-4.336-3.3-4.106-5.42.058-.546.314-1.554 1.336-2.407a4.5 4.5 0 0 1-1.135-.691C1.519 12.35 1.088 9.146.935 6.54.75 3.428 1.45 1.675 3.01 1.33 4.874.918 7.245 2.927 8.906 4.685c1.486 1.573 2.863 3.448 3.64 4.915.776-1.467 2.154-3.342 3.64-4.915 1.66-1.758 4.03-3.767 5.895-3.355 1.56.345 2.258 2.098 2.075 5.21-.153 2.606-.584 5.811-2.574 7.468a4.5 4.5 0 0 1-1.134.69c1.022.853 1.277 1.86 1.335 2.407.23 2.12-1.42 4.298-4.106 5.421l-.06.022c-1.065.343-2.687.207-4.36-2.388a13 13 0 0 1-.692-1.216c-.765 1.682-1.984 3.78-4.027 3.78zm-.564-1.712c1.65.504 2.62-1.429 3.55-3.63.118-.279.229-.542.334-.769a.78.78 0 0 1 .748-.459.79.79 0 0 1 .699.536c.447 1.287 2.103 4.828 3.816 4.321 1.976-.837 3.25-2.366 3.103-3.727-.123-1.133-1.284-1.968-3.185-2.289a.807.807 0 0 1-.648-.926.79.79 0 0 1 .894-.673c1.432.228 2.515.016 3.313-.648 1.511-1.258 1.86-4.03 1.993-6.306.121-2.066-.191-3.385-.838-3.528-1.04-.23-3.042 1.419-4.441 2.901-1.695 1.795-3.276 4.053-3.759 5.368a1 1 0 0 1-.046.104c-.177.331-.536.53-.96.53-.425 0-.784-.199-.96-.53a1 1 0 0 1-.047-.104C11.056 9.868 9.474 7.61 7.78 5.815c-1.4-1.481-3.403-3.13-4.441-2.901-.645.143-.96 1.462-.838 3.528.134 2.275.482 5.048 1.994 6.306.797.664 1.88.875 3.312.649a.79.79 0 0 1 .895.672.807.807 0 0 1-.649.926c-1.9.322-3.062 1.156-3.185 2.29-.147 1.36 1.127 2.89 3.104 3.726z"/></svg>
